static/logos/retool-glyph-color.svg

<svg width="50" height="50" viewBox="0 0 50 50" fill="none" xmlns="http://www.w3.org/2000/svg">
<g clip-path="url(#clip0_1_1222)">
<path d="M0 4.58138C0 2.05116 2.05116 0 4.5814 0H22.5019C25.0321 0 27.0833 2.05116 27.0833 4.5814V8.12598C27.0833 9.39108 26.0577 10.4167 24.7927 10.4167H2.29069C1.02558 10.4167 0 9.39108 0 8.12598V4.58138Z" fill="black"/>
<path d="M0 18.9573C0 17.6922 1.02558 16.6667 2.29069 16.6667H45.4185C47.9487 16.6667 50 18.7178 50 21.2481V33.126C50 34.391 48.9744 35.4167 47.7094 35.4167H4.5814C2.05116 35.4167 0 33.3654 0 30.8352V18.9573Z" fill="black"/>
<path d="M22.9141 43.9573C22.9141 42.6923 23.9397 41.6667 25.2047 41.6667H47.7068C48.9718 41.6667 49.9974 42.6923 49.9974 43.9573V45.4185C49.9974 47.9487 47.9461 50 45.4159 50H27.4955C24.9653 50 22.9141 47.9487 22.9141 45.4185V43.9573Z" fill="black"/>
</g>
<defs>
<clipPath id="clip0_1_1222">
<rect width="50" height="50" fill="white"/>
</clipPath>
</defs>
</svg>

<svg xmlns="http://www.w3.org/2000/svg" width="64" height="64" fill="none" viewBox="0 0 50 50"><g fill="#000" clip-path="url(#a)"><path d="M0 4.581A4.581 4.581 0 0 1 4.581 0h17.92a4.581 4.581 0 0 1 4.582 4.581v3.545a2.29 2.29 0 0 1-2.29 2.29H2.29A2.29 2.29 0 0 1 0 8.127V4.581ZM0 18.957a2.29 2.29 0 0 1 2.29-2.29H45.42A4.581 4.581 0 0 1 50 21.248v11.878a2.29 2.29 0 0 1-2.29 2.29H4.58A4.582 4.582 0 0 1 0 30.837V18.956ZM22.914 43.957a2.29 2.29 0 0 1 2.29-2.29h22.503a2.29 2.29 0 0 1 2.29 2.29v1.462A4.582 4.582 0 0 1 45.416 50h-17.92a4.582 4.582 0 0 1-4.582-4.581v-1.462Z"/></g><defs><clipPath id="a"><path fill="#fff" d="M0 0h50v50H0z"/></clipPath></defs></svg>
